app/img/icons/grid-icon.svg

<svg xmlns="http://www.w3.org/2000/svg"
 xmlns:xlink="http://www.w3.org/1999/xlink"
 width="16px" height="15px"  viewBox="0 0 16 15">
<path fill-rule="evenodd"  fill="#ffffff"
 d="M1.999939,1.0 C1.999939,1.0 4.999878,1.0 4.999878,1.0 C4.999878,1.0 4.999878,3.999939 4.999878,3.999939 C4.999878,3.999939 1.999939,3.999939 1.999939,3.999939 C1.999939,3.999939 1.999939,1.0 1.999939,1.0 ZM11.999908,1.0 C11.999908,1.0 14.9999695,1.0 14.9999695,1.0 C14.9999695,1.0 14.9999695,3.999939 14.9999695,3.999939 C14.9999695,3.999939 11.999908,3.999939 11.999908,3.999939 C11.999908,3.999939 11.999908,1.0 11.999908,1.0 ZM11.999908,10.999847 C11.999908,10.999847 14.9999695,10.999847 14.9999695,10.999847 C14.9999695,10.999847 14.9999695,13.999817 14.9999695,13.999817 C14.9999695,13.999817 11.999908,13.999817 11.999908,13.999817 C11.999908,13.999817 11.999908,10.999847 11.999908,10.999847 ZM1.999939,10.999847 C1.999939,10.999847 4.999878,10.999847 4.999878,10.999847 C4.999878,10.999847 4.999878,13.999817 4.999878,13.999817 C4.999878,13.999817 1.999939,13.999817 1.999939,13.999817 C1.999939,13.999817 1.999939,10.999847 1.999939,10.999847 Z"/>
</svg>

<svg xmlns="http://www.w3.org/2000/svg" width="16" height="15"><path fill-rule="evenodd" fill="#fff" d="M2 1h3v3H2V1zm10 0h3v3h-3V1zm0 10h3v3h-3v-3zM2 11h3v3H2v-3z"/></svg>
